X: 10216
T: Distance
R: reel
M: 4/4
K: Adorian
|:eAcd e2 ed|cABG E3 D|eAcd deed|e2 ag dggf|
eAcd e2 ed|cABG E3 D|EG G2 GABd|1 ed^cB A2 gf:|2 ed^cB ABcd||
|:eA^ce a2 ab|gage dGBd|eA^ce a2 ab|gage dggf|
eA^ce a2 ab|gagf feed|e2 GF GABd|1 ed^cB ABcd:|2 ed^cB A2 gf||

